svg/black/san.svg

<svg xmlns="http://www.w3.org/2000/svg" width="32" height="32" viewBox="0 0 32 32">
  <path d="M16,32 C7.163444,32 0,24.836556 0,16 C0,7.163444 7.163444,0 16,0 C24.836556,0 32,7.163444 32,16 C32,24.836556 24.836556,32 16,32 Z M26.999683,16.0390148 C27.0454416,9.99576992 22.1307942,5.04149707 16.0493031,5.00024813 C10.0135705,4.95987917 5.04953462,9.85046365 5.00036614,15.8856788 C4.95130767,21.9807323 9.83834592,26.9532647 15.923027,26.9996835 C22.0025382,27.0453323 26.9527145,22.1470481 26.999683,16.0390148 Z M5.79641143,16.0038157 L5.79608144,16.0037057 C5.78508178,10.4903172 10.3378404,5.89848508 15.7396627,5.80564746 C21.3272692,5.70972992 26.1808685,10.1306265 26.2015478,15.9899561 C26.2214572,21.6159817 21.62217,26.1846044 15.9845151,26.1730547 C10.3536799,26.161395 5.80741108,21.6236815 5.79641143,16.0038157 Z M18.6814113,11.2282883 C17.468149,10.5861248 16.2507068,10.4508282 14.9959758,10.7488106 C14.3223567,10.9092965 13.8096626,11.3305857 13.5258714,11.980779 C12.9357397,13.3338542 13.3161079,14.8514853 14.4806418,15.759622 C14.7705928,15.9858862 15.1037724,16.1558318 15.4021932,16.3723063 C15.8489993,16.6967979 16.3281444,16.9942303 16.7103825,17.3842803 C17.2054772,17.8896073 17.3052441,18.5537703 16.9892239,19.1831741 C16.6754036,19.8079581 16.0344535,19.9016757 15.4223225,19.8050982 C14.7800525,19.7032408 14.1561518,19.4869863 13.4732931,19.3072509 C13.3312875,19.7201803 13.1651926,20.2033979 13.0043776,20.6712159 C14.0746444,21.3919174 15.9823151,21.6147717 17.1024104,21.1609234 C17.8341076,20.864371 18.4050999,20.3767535 18.6456624,19.6049033 C19.0513298,18.3029767 18.8758853,17.0949877 17.8888859,16.0994033 C17.5247972,15.7321227 17.0661115,15.4581197 16.6490044,15.1436378 C16.1955985,14.8017666 15.7087536,14.4966344 15.2953865,14.1116443 C14.891919,13.7362239 14.9119384,13.2172572 15.0800132,12.7301897 C15.2437981,12.2548919 15.6812545,12.1445648 16.1029814,12.1862537 C16.8133393,12.2563219 17.5161075,12.4053681 18.273544,12.5296649 C18.3801307,12.1896636 18.5255462,11.7256955 18.6814113,11.2282883 Z M10.6019422,15.8184705 C10.6056821,15.1145985 10.0559192,14.550423 9.3560109,14.5398633 C8.67172214,14.5296336 8.07873056,15.0995289 8.06245106,15.7836014 C8.04595158,16.4813135 8.64466298,17.0910278 9.34391127,17.0877279 C10.0368898,17.084648 10.5983123,16.5182725 10.6019422,15.8184705 Z M22.6944167,14.5746224 C21.9233407,14.5752824 21.3938171,15.0780795 21.3934871,15.8096707 C21.3931571,16.5094727 21.9498498,17.0780482 22.6451383,17.0880579 C23.3548362,17.0982876 23.9304483,16.5127727 23.9210986,15.7907512 C23.9118589,15.0888592 23.3923451,14.5738524 22.6944167,14.5746224 Z"/>
</svg>

<svg xmlns="http://www.w3.org/2000/svg" width="32" height="32"><path d="M16 32C7.163 32 0 24.837 0 16S7.163 0 16 0s16 7.163 16 16-7.163 16-16 16zm11-15.961C27.045 9.996 22.13 5.041 16.05 5 10.013 4.96 5.05 9.85 5 15.886 4.951 21.98 9.838 26.953 15.923 27c6.08.045 11.03-4.853 11.077-10.961zm-21.204-.035c-.01-5.514 4.542-10.106 9.944-10.198 5.587-.096 10.44 4.325 10.462 10.184.02 5.626-4.58 10.195-10.217 10.183-5.631-.012-10.178-4.55-10.189-10.17zm12.885-4.776c-1.213-.642-2.43-.777-3.685-.48a2.077 2.077 0 0 0-1.47 1.233 3.137 3.137 0 0 0 .955 3.779c.29.226.623.396.921.612.447.325.926.622 1.308 1.012.495.506.595 1.17.28 1.8-.315.624-.956.718-1.568.621-.642-.102-1.266-.318-1.949-.498l-.469 1.364c1.07.72 2.978.944 4.098.49.732-.297 1.303-.784 1.544-1.556.405-1.302.23-2.51-.757-3.506-.364-.367-.823-.64-1.24-.955-.453-.342-.94-.647-1.354-1.032-.403-.376-.383-.895-.215-1.382.164-.475.601-.585 1.023-.544.71.07 1.413.22 2.17.344.107-.34.253-.804.408-1.302zm-8.08 4.59a1.26 1.26 0 0 0-1.245-1.278 1.295 1.295 0 0 0-1.294 1.244c-.016.697.583 1.307 1.282 1.304a1.27 1.27 0 0 0 1.258-1.27zm12.093-1.243c-.77 0-1.3.503-1.3 1.235 0 .7.556 1.268 1.251 1.278.71.01 1.285-.575 1.276-1.297-.01-.702-.529-1.217-1.227-1.216z"/></svg>
